core/resources/src/main/assets/svg/objects/zzz_md.svg

<?xml version="1.0" encoding="utf-8"?><!-- Generator: Adobe Illustrator 27.2.0, SVG Export Plug-In . SVG Version: 6.00 Build 0)  -->
<svg style="enable-background:new 0 0 40 40;" id="Слой_1" version="1.1" viewBox="0 0 40 40" x="0px"
	xmlns="http://www.w3.org/2000/svg" y="0px" xml:space="preserve">
<style type="text/css">
	.st0{fill:#D4FFD7;}
	.st1{fill:#103B06;}
</style>
	<path class="st0" d="M20.0000191,39h-0.0000381C9.5065813,39,0.9999998,30.4934177,1,20.0000191v-0.0000381
	C1.0000002,9.5065813,9.5065813,0.9999998,19.9999809,1h0.0000381C30.4934196,1.0000002,39,9.5065813,39,19.9999809v0.0000381
	C39,30.4934196,30.4934196,39,20.0000191,39z" />
	<path class="st1" d="M20.0820637,1.9407139c9.9401493,0.0179659,17.9505367,8.1115265,17.9439106,18.1302242
	c-0.0065727,9.941082-8.1381378,18.0066833-18.1169949,17.9700317c-9.9663515-0.036602-17.9844246-8.1362572-17.9495106-18.1413536
	C1.9940267,9.9964352,9.9930983,1.9246051,20.0820637,1.9407139z M20.006424,24.1697712
	c2.0348225-4.0549221,3.9409485-7.8690529,5.8650246-11.6740971c0.3742409-0.740099-0.0519447-0.7349911-0.5813828-0.7341928
	c-3.5015488,0.0052805-7.0034332,0.0272522-10.5044613-0.0163593c-1.0212898-0.012722-0.8426666,0.3564463-0.5112228,0.9908819
	c0.7113905,1.3617153,1.3715096,2.7501678,2.0596962,4.1241245C17.5168114,19.2214279,18.7049522,21.5800114,20.006424,24.1697712z
	 M28.2139168,15.4702425c-0.1449471,0.0418835-0.2009678,0.0414295-0.212244,0.0636826
	c-2.0290756,4.0042734-4.0515995,8.0118742-6.0841866,12.0143614c-0.3489895,0.6872158,0.082159,0.6759338,0.5503349,0.6753426
	c1.5766926-0.0019894,3.1550102-0.0407295,4.7294216,0.0199242c0.8204613,0.0316124,1.0361404-0.2446423,1.0285797-1.0454998
	C28.1891232,23.3117142,28.2120686,19.4248104,28.2139168,15.4702425z M11.9901257,15.4846201
	c-0.0721149,0.0281267-0.144228,0.0562534-0.2163429,0.0843801c-0.0018139,3.8817425,0.0201015,7.7637596-0.0243397,11.6450138
	c-0.009532,0.8325157,0.2634077,1.0486965,1.0506382,1.0212116c1.5357561-0.0536118,3.0756645-0.0481567,4.6119747-0.0030441
	c0.9006424,0.0264435,0.8355141-0.2934837,0.5040588-0.9290638c-0.8522129-1.6341572-1.6555653-3.2938061-2.4805803-4.9421959
	C14.2880869,20.0683098,13.138689,17.7766743,11.9901257,15.4846201z M11.0305281,8.4167376
	c6.0363741,0.0028219,11.9333315,0.005579,17.9177742,0.0083771C24.5658817,4.2601409,15.7357502,4.0565248,11.0305281,8.4167376z
	 M8.478591,10.9221992C3.571197,16.5713158,4.8054786,25.560585,8.4702024,28.8640652
	C8.4729748,22.9353485,8.4757328,17.0344067,8.478591,10.9221992z M31.5176754,29.0865479
	c4.9397297-5.7474155,3.5978374-14.7244816,0.0083828-17.9296608
	C31.5232944,17.0650158,31.5205364,22.9639912,31.5176754,29.0865479z M10.8805981,31.5388241
	c5.9736042,4.978857,14.822546,3.4970493,17.9579315,0.0083961C22.9286575,31.5444565,17.0285873,31.5416985,10.8805981,31.5388241z
	" />
</svg>

<svg xmlns="http://www.w3.org/2000/svg" xml:space="preserve" viewBox="0 0 40 40"><path d="M20 39C9.507 39 1 30.493 1 20S9.507 1 20 1s19 8.507 19 19-8.507 19-19 19" style="fill:#d4ffd7"/><path d="M20.082 1.94c9.94.019 17.95 8.112 17.944 18.13-.007 9.942-8.138 18.008-18.117 17.971-9.966-.037-17.984-8.136-17.95-18.141.035-9.904 8.034-17.975 18.123-17.96m-.076 22.23c2.035-4.055 3.941-7.87 5.865-11.674.375-.74-.051-.735-.58-.735-3.502.006-7.004.028-10.505-.016-1.022-.013-.843.357-.512.991.712 1.362 1.372 2.75 2.06 4.124 1.183 2.361 2.371 4.72 3.672 7.31m8.208-8.7c-.145.042-.201.042-.212.064-2.03 4.004-4.052 8.012-6.085 12.014-.349.688.083.676.55.676 1.578-.002 3.156-.041 4.73.02.82.031 1.036-.245 1.029-1.046-.037-3.886-.014-7.773-.012-11.728m-16.224.015-.216.084c-.002 3.882.02 7.764-.025 11.645-.01.833.264 1.049 1.051 1.021a72 72 0 0 1 4.612-.003c.9.027.836-.293.504-.929-.852-1.634-1.655-3.294-2.48-4.942q-1.722-3.439-3.446-6.876m-.96-7.068 17.918.008c-4.382-4.165-13.212-4.368-17.917-.008M8.48 10.922c-4.908 5.65-3.674 14.639-.009 17.942zm23.039 18.165c4.94-5.748 3.598-14.725.008-17.93zM10.88 31.539c5.973 4.979 14.822 3.497 17.958.008z" style="fill:#103b06"/></svg>
